X: 18429
T: Hunting The Hare
R: jig
M: 6/8
K: Dmajor
|:d2 D FGA|Bed cBA|d2 D FGA|Bdc d3:|
|:fed fed|fed fed|ecd ecd|(e/f/g)f {f}e3|
d2 D FGA|Bge cAc|d2 D FGA|Bdc d3:|

